X:596
T: DEN SONNTAG DEN MONTAG IN ALLER FRUEH
N: E0557
O: Europa, Mitteleuropa, Deutschland
R: Liebes - Lied, Abschied, Trennung
M: 2/4
L: 1/8
K: F
C | F2FG | A2A
A | G2G2 | F2z
G | AGAB | c2c
c | B2B2 | A2z
c | ccfc | B2d
B | A2cA | G2z
C | FGAB | cfd
B | A2G2 | F2z

@@@ Tune index: 4246
